X:1
T:Yonder’s My Home
T:Yonder’s My Home
T:H. S. Blunt, 1891
T:Irville Irwin Leslie, 1845
T:Public Domain Courtesy of the Cyber Hymnal™
T:Public Domain Courtesy of the Cyber Hymnal™
C:H. S. Blunt, 1891
Z:Public Domain
Z:Courtesy of the Cyber Hymnal™
%%score ( 1 2 ) ( 3 4 )
L:1/8
Q:1/4=95
M:6/8
K:F
V:1 treble 
V:2 treble 
V:3 bass 
V:4 bass 
V:1
 [Ac]2 [Ac] (cA)F | (GA)[CG] [CF]3 | [EG]3 [Ec]2 [GB] | [FA]3- [FA]2 z | [Ac]2 [Ac] (cA)[_EF] | %5
w: 1.~I’m a lone- * ly|trav- * eler here,|Wea- ry, op-|pressed; *|But my jour- * ney’s|
w: 2.~I’m a wea- * ry|tra- * veler here,|I must go|on; *|For my jour- * ney’s|
w: 3.~I’m a tra- * veler|to * a land|Where all is|fair; *|Where is seen * no|
w: 4.~I’m a tra- * veler,|and * I go|Where all is|fair; *|Fare- well all * I|
w: 5.~I’m a tra- * veler—|call * me not—|Up- ward’s my|way; *|Yon- der is * my|
 (GF)D [B,D]3 | (C2 B) [CA]2 [CG] | [CF]3- [CF]2 z | [EG]2 [EG] [EG]2 [EB] | [FA]2 [EG] F3 | %10
w: end * is near,|Soon * I shall|rest. *|Dark and drear- y|is the way,|
w: end * is near,|I * must be|gone. *|Bright- er joys than|earth can give,|
w: bro- * ken band,|Saints * all are|there. *|Where no tear shall|ev- er fall,|
w: love * be- low,|I * must be|there. *|World- ly hon- ors,|hopes and gain,|
w: rest * and lot,|I * ca- nnot|stay. *|Fare- well earth- ly|plea- sures all,|
 [GB]3 ([GB][Ac])[Bd] | ([Ac]3 [FA]2) z | F2 [_EF] [DF]2 [B,D] | [DF]2 [B,D] [A,C]3 | %14
w: Toil- ing * I’ve|come; *|Ask me not with|you to stay,|
w: Hie me * a-|way, *|Plea- sures that for-|ev- er live,|
w: Nor heart * be|sad; *|Where the glo- ry|is for all,|
w: All I * re-|sign; *|Wel- come, sor- row,|grief, and pain,|
w: Pil- grim * I’ll|roam; *|Hail me not— in|vain you call—|
 [EG]3 [EA]2 [EG] | F3- F2 z ||"^Refrain" [GB]2 [FB] Bc[Ed] | [Fc]2 [FA] [Fc]3 | [CF]3 (FG)[FA] | %19
w: Yon- der’s my|home. *||||
w: I can not|stay. *||||
w: And all are|glad. *|I’m a tra- vel- er,|call me not,|Up- ward * I|
w: If Heav’n be|mine. *||||
w: Yon- der’s my|home. *||||
 [EG]3- [EG]2 z | [FA]2 [FA] [_EA]2 [EF] | (GF)D [DF]3 | (C2 A) [=B,A]2 [CG] | [CF]3- [CF]2 z |] %24
w: |||||
w: |||||
w: roam; *|Hea- ven is my|rest- * ing place,|Yon- * der’s my|home. *|
w: |||||
w: |||||
V:2
 x3 F2 F | E2 x4 | x6 | x6 | x3 F2 x | D2 D x3 | C3 x3 | x6 | x6 | x3 F3 | x6 | x6 | F2 x4 | x6 | %14
 x6 | F3- F2 x || x3 F2 x | x6 | x3 C2 x | x6 | x6 | D2 D x3 | C3 x3 | x6 |] %24
V:3
 [F,C]2 [F,C] A,C[F,A,] | (B,C)[C,B,] [F,A,]3 | [C,C]3 [C,G,]2 [E,C] | [F,C]3- [F,C]2 z | %4
 [F,C]2 [F,C] [F,A,]2 [F,A,] | [B,,B,]2 [B,,B,] [B,,B,]3 | (A,2 F,) [C,E,]2 [C,B,] | %7
 [F,A,]3- [F,A,]2 z | [C,B,]2 [C,B,] [C,B,]2 [C,B,] | [F,C]2 [C,B,] [F,A,]3 | [C,C]3 [C,C]2 [C,C] | %11
 [F,C]3- [F,C]2 z | [F,A,]2 [A,,C] [B,,B,]2 [B,,F,] | [B,,F,]2 [B,,F,] [F,,F,]3 | %14
 [C,B,]3 [C,C]2 [C,B,] | [F,A,]3- [F,A,]2 z || [C,C]2 [D,C] C2 B, | [A,C]2 [F,C] [F,C]3 | %18
 [F,A,]3 (A,B,)[F,C] | [C,C]3- [C,C]2 z | [F,C]2 [F,C] [F,C]2 [A,,C] | [B,,B,]2 [B,,B,] [B,,B,]3 | %22
 (A,2 F,) [G,,F,]2 (E,/B,/) | [F,,F,A,]3- [F,,F,A,]2 z |] %24
V:4
 x3 F,2 x | C,2 x4 | x6 | x6 | x6 | x6 | C,3 x3 | x6 | x6 | x6 | x6 | x6 | x6 | x6 | x6 | x6 || %16
 x3 G,A,B, | x6 | x3 F,2 x | x6 | x6 | x6 | C,3 C, x2 | x6 |] %24

